resources/haticons/SVG/twitch2.svg

<!-- Generated by IcoMoon.io -->
<svg version="1.1" xmlns="http://www.w3.org/2000/svg" width="24" height="24" viewBox="0 0 24 24">
<title>twitch2</title>
<path fill="#6441a4" d="M2.089 0l-1.564 4.175v16.694h5.736v3.131h3.132l3.127-3.132h4.695l6.26-6.258v-14.61zM4.175 2.085h17.215v11.479l-3.652 3.652h-5.738l-3.127 3.127v-3.127h-4.698zM9.915 12.522h2.085v-6.26h-2.085zM15.65 12.522h2.086v-6.26h-2.086z"></path>
</svg>

<svg xmlns="http://www.w3.org/2000/svg" width="24" height="24"><path fill="#6441a4" d="M2.089 0L.525 4.175v16.694h5.736V24h3.132l3.127-3.132h4.695l6.26-6.258V0zm2.086 2.085H21.39v11.479l-3.652 3.652H12l-3.127 3.127v-3.127H4.175zm5.74 10.437H12v-6.26H9.915zm5.735 0h2.086v-6.26H15.65z"/></svg>
